X: 4247
M: 6/8
L: 1/8
K: D
f |\
dcB B2f | dcB B2e | cBA A2e | cBA A2f |\
dcB B2f | dcB B2A | Bde f2e | dBB B2 :|
|: d |\


